src/assets/images/icons/icon-double-quotes.svg

<svg width="21" height="21" viewBox="0 0 21 21" fill="none" xmlns="http://www.w3.org/2000/svg">
<path fill-rule="evenodd" clip-rule="evenodd" d="M13.0678 20.6215C17.3675 17.1829 19.7563 13.1804 20.234 8.61411C20.978 1.50579 15.8732 -1.97336 13.2865 1.1524C10.6998 4.27815 12.2501 8.2465 14.123 9.33156C15.9959 10.4166 17.1414 10.0383 16.9415 11.4882C16.7417 12.938 14.0773 16.9561 11.7362 18.8276C11.6533 18.9155 11.6005 19.0394 11.5884 19.1742C11.5763 19.3089 11.6059 19.4443 11.6711 19.5528L12.2501 20.4907C12.5013 20.8974 12.7423 20.8818 13.0678 20.6223M1.74687 20.6215C6.0466 17.1829 8.43534 13.1804 8.91309 8.61411C9.65769 1.50579 4.55283 -1.97336 1.96614 1.1524C-0.620558 4.27815 0.929745 8.2465 2.80324 9.33156C4.67674 10.4166 5.82162 10.0383 5.62177 11.4882C5.42191 12.938 2.75699 16.9561 0.415833 18.8276C0.333075 18.9156 0.280342 19.0396 0.268358 19.1743C0.256372 19.309 0.286032 19.4444 0.351307 19.5528L0.929745 20.4907C1.18099 20.8974 1.42196 20.8818 1.74687 20.6223" fill="#163860"/>
</svg>

<svg xmlns="http://www.w3.org/2000/svg" width="21" height="21" fill="none"><path fill="#163860" fill-rule="evenodd" d="M13.068 20.622c4.3-3.44 6.688-7.442 7.166-12.008.744-7.108-4.36-10.587-6.948-7.462-2.586 3.126-1.036 7.094.837 8.18 1.873 1.085 3.018.706 2.819 2.156-.2 1.45-2.865 5.468-5.206 7.34a.632.632 0 0 0-.065.725l.58.938c.25.406.491.39.817.131m-11.321 0c4.3-3.44 6.688-7.442 7.166-12.008.745-7.108-4.36-10.587-6.947-7.462C-.62 4.278.93 8.246 2.803 9.332c1.874 1.085 3.019.706 2.819 2.156-.2 1.45-2.865 5.468-5.206 7.34a.632.632 0 0 0-.065.725l.579.938c.251.406.492.39.817.131" clip-rule="evenodd"/></svg>
